X:16
T:On d'onoren gorda
R:Bourre  3 temps
A:Auvergne
O:France
M:3/4
Q:1/4=210
K:G
G2|ABc2B2|ABc2d2|c4B2|A2G2G2|ABc2B2|ABc2d2|c4B2|A4:|
G2|ABc2B2|G2A2B2|G3GF2|G2A2G2|\
ABc2B2|G2A2B2|G3GF2|G6:|
